src/pos-icons/wifi-strength-3-lock.svg

<svg height="24" viewBox="0 0 24 24" width="24" xmlns="http://www.w3.org/2000/svg"><path d="m12 3c-4.21 0-8.3 1.42-11.62 4 4.04 5.06 7.51 9.37 11.62 14.5 1.23-1.53 2.29-2.84 3.5-4.36v-2.64c0-2.06 1.27-3.91 3.19-4.66-1.5-.88-3.85-1.84-6.69-1.84-3 0-5.32 1-6.8 1.84l-1.93-2.4c2.64-1.59 5.65-2.44 8.73-2.44 3.07 0 6.08.86 8.71 2.45l-1.87 2.34c.53-.19 1.09-.29 1.66-.29.35 0 .7.04 1.04.12.66-.82 1.49-1.86 2.11-2.62-3.33-2.59-7.43-4-11.65-4m8.5 9c-1.4 0-2.5 1.1-2.5 2.5v1.5c-.5 0-1 .5-1 1v4c0 .5.5 1 1 1h5c.5 0 1-.5 1-1v-4c0-.5-.5-1-1-1v-1.5c0-1.4-1.1-2.5-2.5-2.5m0 1c.8 0 1.5.7 1.5 1.5v1.5h-3v-1.5c0-.8.7-1.5 1.5-1.5z"/></svg>

<?xml version="1.0" encoding="UTF-8"?><!DOCTYPE svg PUBLIC "-//W3C//DTD SVG 1.1//EN" "http://www.w3.org/Graphics/SVG/1.1/DTD/svg11.dtd"><svg xmlns="http://www.w3.org/2000/svg" xmlns:xlink="http://www.w3.org/1999/xlink" version="1.1" id="mdi-wifi-strength-3-lock" width="24" height="24" viewBox="0 0 24 24"><path d="M12,3C7.79,3 3.7,4.42 0.38,7C4.42,12.06 7.89,16.37 12,21.5C13.23,19.97 14.29,18.66 15.5,17.14V14.5C15.5,12.44 16.77,10.59 18.69,9.84C17.19,8.96 14.84,8 12,8C9,8 6.68,9 5.2,9.84L3.27,7.44C5.91,5.85 8.92,5 12,5C15.07,5 18.08,5.86 20.71,7.45L18.84,9.79C19.37,9.6 19.93,9.5 20.5,9.5C20.85,9.5 21.2,9.54 21.54,9.62C22.2,8.8 23.03,7.76 23.65,7C20.32,4.41 16.22,3 12,3M20.5,12C19.1,12 18,13.1 18,14.5V16C17.5,16 17,16.5 17,17V21C17,21.5 17.5,22 18,22H23C23.5,22 24,21.5 24,21V17C24,16.5 23.5,16 23,16V14.5C23,13.1 21.9,12 20.5,12M20.5,13C21.3,13 22,13.7 22,14.5V16H19V14.5C19,13.7 19.7,13 20.5,13Z" /></svg>
